blockchains/ethereum/assets/0x38D5e1f36eCa1Dcf9b8B400aD034c9BB875A14Da/logo.svg

<svg fill="none" height="250" viewBox="0 0 250 250" width="250" xmlns="http://www.w3.org/2000/svg" xmlns:xlink="http://www.w3.org/1999/xlink"><linearGradient id="a" gradientUnits="userSpaceOnUse" x1="-.007138" x2="249.993" y1=".007138" y2="250.007"><stop offset="0" stop-color="#a0f"/><stop offset="1" stop-color="#50f"/></linearGradient><clipPath id="b"><path d="m0 0h250v250h-250z"/></clipPath><g clip-path="url(#b)"><path d="m125 250c69.036 0 125-55.964 125-125 0-69.0356-55.964-125-125-125-69.0356 0-125 55.9644-125 125 0 69.036 55.9644 125 125 125z" fill="url(#a)"/><path clip-rule="evenodd" d="m109.375 83.4821v27.2319c0 1.786 1.652 3.125 3.125 3.125h42.857c1.473 0 3.125 1.34 3.125 3.125v11.607c0 1.474-1.339 3.125-3.125 3.125h-42.857c-1.473 0-3.125 1.652-3.125 3.125v63.393c0 2.411-1.339 3.706-3.125 2.679l-12.5-8.929c-1.4732-.893-2.2321-1.785-2.2321-3.571v-53.572c0-1.473-1.6964-3.125-3.125-3.125h-20.5357c-1.7857 0-3.125-1.651-3.125-3.125v-11.607c0-1.741 1.3393-3.125 3.125-3.125h20.5357c1.4286 0 3.125-1.339 3.125-3.125v-45.089c0-1.7857 1.4286-3.125 2.9018-3.125h78.7943c1.474 0 3.125 1.6518 3.125 3.125v11.6071c0 1.4733-1.339 3.125-3.125 3.125h-60.714c-1.473 0-3.125 1.6518-3.125 3.125z" fill="#fff" fill-rule="evenodd"/></g></svg>

<svg width="250" height="250" viewBox="0 0 250 250" fill="none" xmlns="http://www.w3.org/2000/svg">
<g clip-path="url(#clip0_30_470)">
<path d="M125 250C194.036 250 250 194.036 250 125C250 55.9644 194.036 0 125 0C55.9644 0 0 55.9644 0 125C0 194.036 55.9644 250 125 250Z" fill="url(#paint0_linear_30_470)"/>
<path fill-rule="evenodd" clip-rule="evenodd" d="M109.375 83.4821V110.714C109.375 112.5 111.027 113.839 112.5 113.839H155.357C156.83 113.839 158.482 115.179 158.482 116.964V128.571C158.482 130.045 157.143 131.696 155.357 131.696H112.5C111.027 131.696 109.375 133.348 109.375 134.821V198.214C109.375 200.625 108.036 201.92 106.25 200.893L93.75 191.964C92.2768 191.071 91.5179 190.179 91.5179 188.393V134.821C91.5179 133.348 89.8215 131.696 88.3929 131.696H67.8572C66.0715 131.696 64.7322 130.045 64.7322 128.571V116.964C64.7322 115.223 66.0715 113.839 67.8572 113.839H88.3929C89.8215 113.839 91.5179 112.5 91.5179 110.714V65.625C91.5179 63.8393 92.9465 62.5 94.4197 62.5H173.214C174.688 62.5 176.339 64.1518 176.339 65.625V77.2321C176.339 78.7054 175 80.3571 173.214 80.3571H112.5C111.027 80.3571 109.375 82.0089 109.375 83.4821Z" fill="white"/>
</g>
<defs>
<linearGradient id="paint0_linear_30_470" x1="-0.00713766" y1="0.00713766" x2="249.993" y2="250.007" gradientUnits="userSpaceOnUse">
<stop stop-color="#AA00FF"/>
<stop offset="1" stop-color="#5500FF"/>
</linearGradient>
<clipPath id="clip0_30_470">
<rect width="250" height="250" fill="white"/>
</clipPath>
</defs>
</svg>
